X: 11
T:Captain Campbell
M:4/4
L:1/8
Q:90
S:Hunter
R:Strathspey
D:The Driven Bow (Track 7)
K:A Minor
"Am"E<AA>B c&gt;A"Em"B&gt;G|"G"D<GG>A B&gt;d c/2B/2A/2G/2|"Am"E<AA>B c&gt;Bc<E|"G ?d<Bg Em>g e&gt;dc<E|"G"D>eg&gt;e d/2c/2B/2A/2 "Em"G<B|"AM"A<AA>g e&gt;dc<E|"G ?d<Bg Em>g e&gt;dc<E|"G"D>eg&gt;e d/2c/2B/2A/2 "Em"G<B|"AM"C>A"G"d<B ?Am?e>dc&lt;
e|"G"d<BG>B "Am"A2-A||

